X:1
T:Córdoba
T:Córdoba
T:Chants d'Espagne, Op. 232, No. 4
T:Isaac Albéniz (1860 - 1909)
C:Isaac Albéniz
%%score ( 1 2 3 4 )
L:1/8
Q:1/4=90
M:3/4
K:F
V:1 treble-8 nm="Classical Guitar" snm="Guit."
V:2 treble-8 
V:3 treble-8 
V:4 treble-8 
V:1
"^Andantino"!pp!"^III" z6 | z6 | z6 | z6 |!p! [Bdg]6- | [Bdg]2 [FBd]2 [Bdg]2 | %6
 [db]2 [cea]2 [Bdg]2- | [Bdg]2 [cea]2 [Acf]2 | [FAd]2 [GBe]2 [Bdg]2- | [Bdg]2 [cea]4 | [Bdg]6- | %11
 [Bdg]6 | [B_dg]6- | [Bdg]2 [FB_d]2 [Bdg]2 | [_deb]2 [ce_a]2 [Bdg]2- | [Bdg]2 [ce_a]2 [_Acf]2 | %16
 [F_Ad]2 [GBe]2 [B_dg]2- | [Bdg]2 [ce_a]4 | [B_dg]6- | [Bdg]6 | [Ge-e]6 | e6 | [cf]6 | [cf_a]6 | %24
 [_Ad_a]6- | [Ada]6 | [^Gd^g]6- | [Gdg]6 | !fermata![Adfa]6 | [fad']4 [eac']2 | [fad']2 [eac']4 | %31
 [fad']2 [gc'e']2 [af']2 | [fbd']2 [fac']2 [fbd']2 | [g_e']4 [fbd']2 | [fac']2 [fbd']2 [fac']2 | %35
 [deb]4 [^cea]2 | [deg]2 !fermata![^cea]4 | [af']4 [gc'e']2 | [af']2 [gc'e']2 [fad']2 | %39
 [eac']4 [fad']2 | [eac']2 [dfb]2 [cfa]2 | [Bdg]4 [Adf]2 | [Bdg]2 [Adf]2 [^Gde]2 | %43
 [E^ce]4 [EBde]2 | [E^ce]6 |"^cresc." [af']4 [ge']2 | [af']2 [ge']2 [fd']2 | [ec']4 [fd']2 | %48
 [ec']2 [db]2 [ca]2 | [Bg]4 [Af]2 | [Bg]2 [Af]2 [^Ge]2 | !fermata![Afa]4!p! !fermata![G^ca]2 | %52
[Q:1/4=100]!mf!"^V" z/ A/d/f/ a[Adf] z [Adf] |"^I" z [^Gdf] z [Gde] z [=G^c] | %54
 z/ A/d/f/ a[Adf] z [Adf] | z [^Gdf] z [Gde] z [=G^c] | f2 g2 a2 | e'6 | d'2 c'2 d'2 | a6 | %60
 z [Ad] z [Af] z [fa] | z [eg] z a z [eg] | z [Af] z [fa] z [^Gde] | z [A^c] z !>![Bc] AG | %64
 f2 g2 a2 | e'6 |"^VII" d'2 c'2 d'2 |"^III" a6 | g2 a2 g2 | c'2 b2 a2 | ^g2 =b2 e'2 | e'2 d'2 c'2 | %72
 f'2 e'2 c'2 | d'2 e'2 c'2 |"^VII" c'4 =b2 |"^V" a6 | [Gg]2 [Aa]2 [Bb]2 | e'6 | d'2 c'2 d'2 | a6 | %80
 [Gg]2 [Aa]2 [Bb]2 | f'4 e'2 | d'2 c'2 d'2 | a6 | z [=cf] z [cfa] z [cfc'] | %85
 z [ce] z [cg] z [cgc'] | z [Bf] z [Bb] z [Bf] | z [Ae] z [Aa] z [Ag] | Pfe de fa | ef ed ^cd | %90
"^III" de dc Bd | [EA^c]6 ||[K:C] e6- | e2 f2 g2 | e4 f2 | d2 ^c4 || %96
[K:F]"^I" [Acf]2 [Gce]2 [Acf]2 | [EAce]2 [^Gde]2 [EA^ce]2 | [EBde]4 [EBde]2 | [E^ce]6 || %100
[K:D] F2 G2 A2 | [GA]2 [GB]2 [Gc]2 | [DAd]2 [Ee]2 [Ff]2 | [Gc]2 [Dd]2 [Ee]2 | [FA]6 | [FA]6 | %106
 [GA]2 [GB]2 [Gc]2 | [EGB]4 A2 | [FAdf]2 [Gg]2 [Aa]2 |"^II" [GAca]2 [Bb]2 [cc']2 | %110
 [dad']2 [ee']2 [ff']2 | [cgc']2 [dd']2 [ee']2 | [fa]6 | [F^Ba]6 | [GAca]2 [Bb]2 [cc']2 | %115
 [GBcb]4 [Aa]2 | e6- | e2 =c2 d2 | e2 f2 g2 | e6 | _e6- | e2 =c2 d2 | _e2 =f2 g2 | d6 | %124
 [DGd]2 [GBe]2 [Gdg]2 | [A=cf]2 [cda]2 c2 | [BB]2 [B=f]2 [Bfb]2 | [=cf=c']2 [^c^c']2 [ee']2 | %128
 [Ggd']2 [gg']2 [ee']2 | [f=c'f']2 [ee']2 [dd']2 | [B=fb]2 [=c=c']2 [^c^c']2 | %131
 [=cf^c']2 [ee']2 [dd']2 | %132
"^VI" ^G,/4d'/4d'/4d'/4d/4d'/4d'/4d'/4 =f/4=c'/4c'/4c'/4d/4c'/4c'/4c'/4 f/4_b/4b/4b/4d/4b/4b/4b/4 | %133
 ^G,/4d'/4d'/4d'/4d/4d'/4d'/4d'/4 =f/4=c'/4c'/4c'/4d/4c'/4c'/4c'/4 f/4_b/4b/4b/4d/4b/4b/4b/4 | %134
 ^G,/4d'/4d'/4d'/4d/4d'/4d'/4d'/4 =f/4=c'/4c'/4c'/4d/4c'/4c'/4c'/4 f/4_b/4b/4b/4d/4b/4b/4b/4 | %135
 ^G,/4d'/4d'/4d'/4d/4d'/4d'/4d'/4 =f/4=c'/4c'/4c'/4d/4c'/4c'/4c'/4 f/4_b/4b/4b/4d/4b/4b/4b/4 | %136
!mp!"^III" ^G,/4"_dim."d/4d/4d/4D/4d/4d/4d/4 =F/4=c/4c/4c/4D/4c/4c/4c/4 F/4_B/4B/4B/4D/4B/4B/4B/4 | %137
 ^G,/4d/4d/4d/4D/4d/4d/4d/4 =F/4=c/4c/4c/4D/4c/4c/4c/4 F/4_B/4B/4B/4D/4B/4B/4B/4 | %138
 ^G,/4d/4d/4d/4D/4d/4d/4d/4 =F/4=c/4c/4c/4D/4c/4c/4c/4 F/4_B/4B/4B/4D/4B/4B/4B/4 | %139
 ^G,/4d/4d/4d/4D/4d/4d/4d/4 =F/4=c/4c/4c/4D/4c/4c/4c/4 F/4_B/4B/4B/4D/4B/4B/4B/4 |!p! F2 G2 ^G2 | %141
 [FA]4 [FA]2 |"_cresc." [GA]2 [GB]2 [G^B]2 | [EGc]2 [EGe]2 [GGg]2 | [Fdf]2 [EGg]2 [D^G^g]2 | %145
 [F=c^da]4 [Fcda]2 | [Gca]2 [Bb]2 [^B^b]2 | [cgc']2 [ee']2 [aa']2 ||[K:F]!p! [af']4 [gc'e']2 | %149
 [af']2 [gc'e']2 [fad']2 | [eac']4 [fad']2 | [eac']2 [dfb]2 [cfa]2 | [Bdg]4 [Adf]2 | %153
 [Bdg]2 [Adf]2 [^Gde]2 | !fermata![Afa]4 !fermata![G^ca]2 |[Q:1/4=100]!mf! f2 g2 a2 | e'6 | %157
 d'2 c'2 d'2 | a6 | z [Ad] z [Af] z [fa] | z [eg] z a z [eg] | z [Af] z [fa] z [^Gde] | %162
 z [A^c] z !>![Bc] AG | f2 g2 a2 | e'6 |"^VIII" d'2 c'2 d'2 |"^VII" a6 | a2 g2 a2 | %168
 c'b a z"^I" [^G=de]2 | fg a2 x2 | .D,.[DF] .[FA].[Ad] .[df].[fa] | e2 f2 g2 | e6 | a2 g2 f2 | %174
 b2 a2 g2 | z [df] z f z [df] | z [de] z"^II" c3 | [FAd][G^ce] [Adf][Beg] [=cfa][Beg] | %178
 [Adf][Beg] [G^ce][Adf] [FAd]2 | e2 f2 g2 | e6 |!<(! d2 f2 a2!<)! |!>(! a4"^I" d2!>)! | %183
!<(! [FAd]2 [GBe]2 [Acf]2!<)! |!>(! [cea]2 [Bdg]2 ^c2!>)! |!mf! z/ A/d/f/ a[Adf] z [Adf] | %186
 z [^Gdf] z [Gde] z [=G^c] | z/ A/d/f/ a[Adf] z [Adf] | z [^Gdf] z [Gde] z [=G^c] | %189
x!p![^CE] [DF][EG] [FA][EG] | [DF][G^ce] [Adf][Beg] [=cfa][Beg] | z"^cresc." e fg ag | f6 | %193
!p! !arpeggio![G^ca]2 z4 | !arpeggio![fad']6 |] %195
V:2
 [F,C]6- | [F,C]6 | [F,C]6- | [F,C]6 | !arpeggio![F,C]6- | [F,C]6 | [F,C]6- | [F,C]4 z2 | x6 | x6 | %10
 [F,C]6- | [F,C]6 | [F,C]6- | [F,C]2 z2 z2 | x6 | x6 | x6 | x6 | [F,C]6- | [F,C]6 | B2 _d4- | %21
 d2 c2 B2 | _A2 G2 F2 | _E2 _D2 C2 | =B,6- | B,6 | _B,6- | _B,6 |{/!fermata!A,-} !fermata!A,6 | %29
 d4 A2 | d2 A4 | d2 c2 f2 | B2 F2 B2 | _E4 B2 | F2 B2 F2 | G4 A2 | B2 !fermata!A4 | f4 c2 | %38
 f2 c2 d2 | A4 d2 | A2 B2 F2 | G4 D2 | G2 D2 B,2 | A,4 ^G,2 | A,6 | f4 c2 | f2 c2 d2 | A4 d2 | %48
 A2 B2 F2 | G4 D2 | G2 D2 _B,2 |{/A,-} A,6 | D4 ^C=C | =B,2 _B,2 A,2 | D4 ^C=C | =B,2 _B,2 A,2 | %56
 f[Ad] g[Ad] a[df] | z [ga] z [ga] z [ga] | d'[fa] c'[fa] d'[fa] | z [^cg] z [cg] z [cg] | %60
 F2 E2 D2 | ^C3 =B, C2 | D2 C2 B,2 | A,2 G2 FE | f[Ad] g[Ad] a[df] | z [ga] z [ga] z [ga] | %66
 d'[fb] c'[fb] d'[fb] | z [cf] z [cf] z [cf] | g_d ad gd | c'f bf af | ^ge =be e'e | %71
 e'e d'^g c'[ea] | f'[^g=b] e'a c'[ea] | d'[e^g] e'a c'^f | z [d^g] z [dg] z [dg] | %75
 z [^ce] z [ce] z [ce] | Ge Ae Be | e [gb]2 [gb]2 [gb] | d'[gb] c'[gb] d'[gb] | %79
 z [^ce] z [ce] z [ce] | Ge Ae Be | f [gb]2 [gb]2 [gb] | d'[gb] c'[gb] d'[gb] | %83
 z [^ce] z [ce] z [ce] |{/AB} .A2 .G.F .G.A | .G.A .G.F E2 |{/DE} .D2 .^C.D .E.D | %87
 .^C.D .C.=B, A,2 | D4 ^C=C | =B,2 _B,2 [A,=G]2 | [^G,FB]6 | A,B, A,^G, A,E, || %92
[K:C] z (3d/B/E/ E[EBd] A,[EBd] | z (3E/B/d/ f[EBd] g[EBd] | z (3d/B/E/ E[EBd] f[EBd] | %95
 A,(3^C/E/A/x[EA] A,[EA] ||[K:F] F, C2 C2 C | [CE][CE] [B,E][B,E] [A,E][A,E] | ^G, G,2 G,2 G, | %99
 A, A,2"_XII" A2"^VII" a ||[K:D] A, A,2 A,2 A, | C C2 A,2 A, | z A,2 A,2 A, | z A,2 A,2 A, | %104
 A, A,2 A, AA, | ^B, A,2 A, AA, | C C2 A,2 A, | C A,2 A,2 A, | A, A,2 A,2 A, | C A,2 A,2 A, | %110
 F A,2 A,2 A, | E A,2 A,2 A, | A, A,2 A, AA, | A, A,2 A, AA, | [E,C] A,2 A,2 A, | E A,2 A,2 A, | %116
 z (3=c/G/E/ A,[EGc] A,[EAc] | z (3A,/E/G/ =c[EG] A,[EG] | z (3E/G/=c/ f[EGc] A,[EGc] | %119
 z (3=c/G/E/ A,[EGc] A,[EAc] | z (3=c/G/_E/ E[EGc] A,[Gc] | z (3A,/_E/G/ =c[EG] A,[EG] | %122
 z (3_E/G/=c/ =fG A,G | z (3A/F/D/ D[FA] =C[FA] | z D2 D2 D | A,6 | =F D2 D2 D- | D D2 D2 D- | %128
 D D2 D2 D- | D D2 D2 D- | D D2 D2 D- | D D2 D2 D | ^G,d =fd fd | ^G,d =fd fd | ^G,d =fd fd | %135
 ^G,d =fd fd | ^G,D =FD FD | ^G,D =FD FD | ^G,D =FD FD | ^G,D =FD FD | D D2 D2 D | ^D A,2 A, FA,- | %142
 A, A,2 A,2 A,- | A, A,2 A,2 A,- | A, A,2 A,2 A,- | A, A,2 A,2 A,- | A, A,2 A,2 A,- | %147
 A, A,2 A,2!ff! A, ||[K:F] f4 c2 | f2 c2 d2 | A4 d2 | A2 B2 F2 | G4 D2 | G2 D2 B,2 |{/A,-} A,6 | %155
 f[Ad] g[Ad] a[df] | z [ga] z [ga] z [ga] | d'[fa] c'[fa] d'[fa] | z [^cg] z [cg] z [cg] | %159
 F2 E2 D2 | ^C3 =B, C2 | D2 C2 B,2 | A,2 G2 FE | f[Ad] g[Ad] a[df] | z [ga] z [ga] z [ga] | %165
 d'[fb] c'[fb] d'[fb] | z [cf] z [cf] z [cf] | a_d gd ac | [B,F_d]2 [Fc] z CB, | %169
 z [Ad] z [Ad] z [G^c] | x6 | e[B^c] f[Bc] g[Bc] | z ^c z c z c | ad g^c fd | be ae ge | A2 B2 A2 | %176
 ^G2 A,2- [A,=G]2 | D,6- | D,6 | e[B^c] f[Bc] g[Bc] | z ^c z c z c | dA fA ad | %182
 z [Ae] z [Ae] d[F^G] | A, A,2 A,2 A,- | A, A,2 A, [FA]!fermata![A,EG] | D4 ^C=C | =B,2 _B,2 A,2 | %187
 D4 ^C=C | =B,2 _B,2 A,2 | D,6 | x6 | [Adf]^c de fe | d6 | A,2 z4 | D,6 |] %195
V:3
 x6 | x6 | x6 | x6 | x6 | x6 | x6 | x6 | x6 | x6 | x6 | x6 | x6 | x6 | x6 | x6 | x6 | x6 | x6 | %19
 x6 | x6 | x6 | x6 | x6 | x6 | x6 | x6 | x6 | x6 | x6 | x6 | x6 | x6 | x6 | x6 | x6 | x6 | x6 | %38
 x6 | x6 | x6 | x6 | x6 | x6 | x6 | x4 x2 | x2 x2 x2 | x4 x2 | x2 x2 x2 | x4 x2 | x2 x2 x2 | %51
 x4 x2 | x6 | x6 | x6 | x6 | x6 | x6 | x6 | x6 | x6 | x6 | x6 | x6 | x6 | x6 | x6 | x6 | x6 | x6 | %70
 x6 | x6 | x6 | x6 | x6 | x6 | x6 | x6 | x6 | x6 | x6 | x6 | x6 | x6 | x6 | x6 | x6 | x6 | A6 | %89
 x6 | x6 | x6 ||[K:C] x6 | x6 | x6 | x6 ||[K:F] x6 | x6 | x6 | x6 ||[K:D] x6 | x6 | x6 | x6 | x6 | %105
 x6 | x6 | x6 | x6 | x6 | x6 | x6 | x6 | x6 | x6 | x6 | x6 | x6 | x6 | x6 | x6 | x6 | x6 | x6 | %124
 x6 | A, D2 D FD | x6 | x6 | x6 | x6 | x6 | x6 | x6 | x6 | x6 | x6 | x6 | x6 | x6 | x6 | x6 | x6 | %142
 x6 | x6 | x6 | x6 | x6 | x6 ||[K:F] x6 | x6 | x6 | x6 | x6 | x6 | x6 | x6 | x6 | x6 | x6 | x6 | %160
 x6 | x6 | x6 | x6 | x6 | x6 | x6 | x6 | x6 | x6 | x6 | x6 | x6 | x6 | x6 | x6 | x6 | x6 | x6 | %179
 x6 | x6 | x6 | x6 | x6 | x6 | x6 | x6 | x6 | x6 | x6 | x6 | x x xx xx | x6 | x6 | x6 |] %195
V:4
 x6 | x6 | x6 | x6 | x6 | x6 | x6 | x6 | x6 | x6 | x6 | x6 | x6 | x6 | x6 | x6 | x6 | x6 | x6 | %19
 x6 | x6 | x6 | x6 | x6 | x6 | x6 | x6 | x6 | x6 | x6 | x6 | x6 | x6 | x6 | x6 | x6 | x6 | x6 | %38
 x6 | x6 | x6 | x6 | x6 | x6 | x6 | x6 | x6 | x6 | x6 | x6 | x6 | x6 | x6 | x6 | x6 | x6 | %56
 D2 z2 .A,2 | .^C2 .A2 .A,2 | D2 z2 .A,2 | .E2 .A2 .A,2 | x6 | x6 | x6 | x6 | D2 z2 .A,2 | %65
 .^C2 .A2 .A,2 | D2 z2 A,2 | F,6 | B6 | A2 c2 _e2 | d2 z2 z2 | c2 =B2 A2 | d2 c2 A2 | =B2 c2 ^D2 | %74
 E6 | A,6 | A,6 | A,6- | A,6 | A6 | A,6 | A,6- | A,6 | A6 | x6 | x6 | x6 | x6 | x6 | [^Gd]4 x2 | %90
 x6 | x6 ||[K:C] A,4 A,2 | A,4 A,2 | A,4 A,2 | x6 ||[K:F] x6 | x6 | x6 | x6 ||[K:D] !arpeggio!D,6 | %101
 E,6 | F,6 | E,6 | !arpeggio!D,6 | !arpeggio!^D,6 | E,6 | x6 | D,6 | E,6 | x6 | x6 | D,6 | ^D,6 | %114
 x6 | x6 | D,6 | D,6 | D,6 | D,6 | D,6 | D,6 | D,6 | D,6 | B,6 | x4 D,2 | ^G,2 x4 | A,6 | B,2 x4 | %129
 A,6 | ^G,2 x4 | A,6 | x6 | x6 | x6 | x6 | x6 | x6 | x6 | x6 | A,6 | x6 | x6 | x6 | x6 | x6 | x6 | %147
 x6 ||[K:F] x6 | x6 | x6 | x6 | x6 | x6 | x6 | D2 z2 .A,2 | .^C2 .A2 .A,2 | D2 z2 .A,2 | %158
 .E2 .A2 .A,2 | x6 | x6 | x6 | x6 | D2 z2 A,2 | ^C2 A2 A,2 | D2 z2 A,2 | F,6 | B4 F2 | x6 | %169
 A,4 F,E, | x6 | D6 | B3 A G2 | F2 E2 D2 | G2 A2 B2 | x6 | x3 B2 A | x6 | x6 | D6 | B3 A G2 | %181
 F2 E2 D2 | C4 B,2 | x6 | x6 | x6 | x6 | x6 | x6 | x6 | x6 | x6 | x6 | x6 | x6 |] %195

